usr/share/icons/big-icons/symbolic/actions/distribute-vertical-center.svg

<svg xmlns="http://www.w3.org/2000/svg" id="svg2" version="1.1" viewBox="0 0 16 16">
<defs id="defs3051">
<style id="current-color-scheme" type="text/css">
.ColorScheme-Text{color:#fcfcfc}
</style>
</defs>
<path id="path6" d="m14 7-2-3-2 3zm0 2h-4l2 3zm-4-5H9V2H3v2H2v1h1v2h6V5h1zm0 7H9V9H3v2H2v1h1v2h6v-2h1zM8 3v3H4V3zm0 7v3H4v-3z" class="ColorScheme-Text" style="color:#fcfcfc;fill:currentColor;fill-opacity:1;stroke:none"/>
</svg>

<?xml version="1.0" encoding="UTF-8" standalone="no"?>
<svg
   xmlns:dc="http://purl.org/dc/elements/1.1/"
   xmlns:cc="http://creativecommons.org/ns#"
   xmlns:rdf="http://www.w3.org/1999/02/22-rdf-syntax-ns#"
   xmlns:svg="http://www.w3.org/2000/svg"
   xmlns="http://www.w3.org/2000/svg"
   xmlns:sodipodi="http://sodipodi.sourceforge.net/DTD/sodipodi-0.dtd"
   xmlns:inkscape="http://www.inkscape.org/namespaces/inkscape"
   viewBox="0 0 16 16"
   id="svg2"
   version="1.1"
   inkscape:version="0.91 r13725"
   sodipodi:docname="distribute-vertical-center.svg">
  <metadata
     id="metadata10">
    <rdf:RDF>
      <cc:Work
         rdf:about="">
        <dc:format>image/svg+xml</dc:format>
        <dc:type
           rdf:resource="http://purl.org/dc/dcmitype/StillImage" />
      </cc:Work>
    </rdf:RDF>
  </metadata>
  <sodipodi:namedview
     pagecolor="#ffffff"
     bordercolor="#666666"
     borderopacity="1"
     objecttolerance="10"
     gridtolerance="10"
     guidetolerance="10"
     inkscape:pageopacity="0"
     inkscape:pageshadow="2"
     inkscape:window-width="1920"
     inkscape:window-height="1025"
     id="namedview8"
     showgrid="false"
     inkscape:zoom="14.75"
     inkscape:cx="-4.3389831"
     inkscape:cy="7.4576271"
     inkscape:window-x="0"
     inkscape:window-y="26"
     inkscape:window-maximized="1"
     inkscape:current-layer="svg2" />
  <defs
     id="defs3051">
    <style
       type="text/css"
       id="current-color-scheme">
      .ColorScheme-Text {
        color:#eff0f1;
      }
      </style>
  </defs>
  <path
     style="color:#eff0f1;fill:currentColor;fill-opacity:1;stroke:none"
     d="m 14,7 -2,-3 -2,3 4,0 z m 0,2 -4,0 2,3 2,-3 z M 10,4 9,4 9,2 4,2 3,2 3,4 2,4 2,5 3,5 3,6 3,7 9,7 9,6 9,5 10,5 10,4 Z m 0,7 -1,0 0,-2 -5,0 -1,0 0,2 -1,0 0,1 1,0 0,1 0,1 6,0 0,-1 0,-1 1,0 0,-1 z M 8,3 8,6 4,6 4,3 8,3 Z m 0,7 0,3 -4,0 0,-3 4,0 z"
     class="ColorScheme-Text"
     id="path6"
     inkscape:connector-curvature="0" />
</svg>
